resources/icons/16px/rocket-slant.svg

<svg width="16" height="16" viewBox="0 0 16 16" fill="none" xmlns="http://www.w3.org/2000/svg">
<path d="M3.99202 9.99989C5.99201 4.99996 8.99202 1.00006 14.992 1.00004C14.992 7 10.992 9.99988 5.99201 11.9999L3.99202 9.99989ZM11.7062 5.71523C12.0968 5.32471 12.0968 4.69154 11.7062 4.30102C11.3157 3.91049 10.6825 3.91049 10.292 4.30102C9.90149 4.69154 9.90149 5.32471 10.292 5.71523C10.6825 6.10575 11.3157 6.10575 11.7062 5.71523ZM5.15098 5.49708C4.40611 6.63915 3.78244 7.89357 3.24032 9.19535L-0.00795746 8.00019L2.99205 6.00019L5.15098 5.49708ZM7.99203 16.0001L6.75643 12.7683C8.05559 12.2293 9.30834 11.6097 10.4502 10.87L9.99203 13.0001L7.99203 16.0001ZM3.06085 11.0603L5.0002 12.9996C4.00878 13.991 2.81529 14.1543 1.99998 13.9999C1.84562 13.1846 2.06943 12.0517 3.06085 11.0603Z" fill="black"/>
</svg>

<svg xmlns="http://www.w3.org/2000/svg" viewBox="0 0 16 16">
  <path d="M3.992 10c2-5 5-9 11-9 0 6-4 9-9 11zm7.714-4.285a1 1 0 1 0-1.414-1.414 1 1 0 0 0 1.414 1.414m-6.555-.218c-.745 1.142-1.369 2.397-1.91 3.698L-.009 8l3-2zM7.992 16l-1.236-3.232c1.3-.539 2.552-1.158 3.694-1.898L9.992 13zm-4.931-4.94L5 13c-.992.991-2.186 1.154-3.001 1-.154-.815.07-1.948 1.06-2.94"/>
</svg>
